assets/img/icons/duotone-icons/Shopping/Calculator.svg

<?xml version="1.0" encoding="UTF-8"?>
<svg width="24px" height="24px" viewBox="0 0 24 24" version="1.1" xmlns="http://www.w3.org/2000/svg" xmlns:xlink="http://www.w3.org/1999/xlink">
    <!-- Generator: Sketch 52.2 (67145) - http://www.bohemiancoding.com/sketch -->
    <title>Stockholm-icons / Shopping / Calculator</title>
    <desc>Created with Sketch.</desc>
    <g id="Stockholm-icons-/-Shopping-/-Calculator" stroke="none" stroke-width="1" fill="none" fill-rule="evenodd">
        <rect id="bound" x="0" y="0" width="24" height="24"></rect>
        <rect id="Rectangle-189-Copy" fill="#335EEA" opacity="0.3" x="7" y="4" width="10" height="4"></rect>
        <path d="M7,2 L17,2 C18.1045695,2 19,2.8954305 19,4 L19,20 C19,21.1045695 18.1045695,22 17,22 L7,22 C5.8954305,22 5,21.1045695 5,20 L5,4 C5,2.8954305 5.8954305,2 7,2 Z M8,12 C8.55228475,12 9,11.5522847 9,11 C9,10.4477153 8.55228475,10 8,10 C7.44771525,10 7,10.4477153 7,11 C7,11.5522847 7.44771525,12 8,12 Z M8,16 C8.55228475,16 9,15.5522847 9,15 C9,14.4477153 8.55228475,14 8,14 C7.44771525,14 7,14.4477153 7,15 C7,15.5522847 7.44771525,16 8,16 Z M12,12 C12.5522847,12 13,11.5522847 13,11 C13,10.4477153 12.5522847,10 12,10 C11.4477153,10 11,10.4477153 11,11 C11,11.5522847 11.4477153,12 12,12 Z M12,16 C12.5522847,16 13,15.5522847 13,15 C13,14.4477153 12.5522847,14 12,14 C11.4477153,14 11,14.4477153 11,15 C11,15.5522847 11.4477153,16 12,16 Z M16,12 C16.5522847,12 17,11.5522847 17,11 C17,10.4477153 16.5522847,10 16,10 C15.4477153,10 15,10.4477153 15,11 C15,11.5522847 15.4477153,12 16,12 Z M16,16 C16.5522847,16 17,15.5522847 17,15 C17,14.4477153 16.5522847,14 16,14 C15.4477153,14 15,14.4477153 15,15 C15,15.5522847 15.4477153,16 16,16 Z M16,20 C16.5522847,20 17,19.5522847 17,19 C17,18.4477153 16.5522847,18 16,18 C15.4477153,18 15,18.4477153 15,19 C15,19.5522847 15.4477153,20 16,20 Z M8,18 C7.44771525,18 7,18.4477153 7,19 C7,19.5522847 7.44771525,20 8,20 L12,20 C12.5522847,20 13,19.5522847 13,19 C13,18.4477153 12.5522847,18 12,18 L8,18 Z M7,4 L7,8 L17,8 L17,4 L7,4 Z" id="Combined-Shape" fill="#335EEA"></path>
    </g>
</svg>

<svg width="24" height="24" viewBox="0 0 24 24" xmlns="http://www.w3.org/2000/svg"><g fill="none" fill-rule="evenodd"><path d="M0 0h24v24H0z"/><path fill="#335EEA" opacity=".3" d="M7 4h10v4H7z"/><path d="M7 2h10a2 2 0 012 2v16a2 2 0 01-2 2H7a2 2 0 01-2-2V4a2 2 0 012-2zm1 10a1 1 0 100-2 1 1 0 000 2zm0 4a1 1 0 100-2 1 1 0 000 2zm4-4a1 1 0 100-2 1 1 0 000 2zm0 4a1 1 0 100-2 1 1 0 000 2zm4-4a1 1 0 100-2 1 1 0 000 2zm0 4a1 1 0 100-2 1 1 0 000 2zm0 4a1 1 0 100-2 1 1 0 000 2zm-8-2a1 1 0 000 2h4a1 1 0 000-2H8zM7 4v4h10V4H7z" fill="#335EEA"/></g></svg>
